system-design/final-project/img/lang-icon.svg

<?xml version="1.0" ?><svg height="48" viewBox="0 0 48 48" width="48" xmlns="http://www.w3.org/2000/svg"><path d="M0 0h48v48h-48z" fill="none"/><path d="M23.99 4c-11.05 0-19.99 8.95-19.99 20s8.94 20 19.99 20c11.05 0 20.01-8.95 20.01-20s-8.96-20-20.01-20zm13.85 12h-5.9c-.65-2.5-1.56-4.9-2.76-7.12 3.68 1.26 6.74 3.81 8.66 7.12zm-13.84-7.93c1.67 2.4 2.97 5.07 3.82 7.93h-7.64c.85-2.86 2.15-5.53 3.82-7.93zm-15.48 19.93c-.33-1.28-.52-2.62-.52-4s.19-2.72.52-4h6.75c-.16 1.31-.27 2.64-.27 4 0 1.36.11 2.69.28 4h-6.76zm1.63 4h5.9c.65 2.5 1.56 4.9 2.76 7.13-3.68-1.26-6.74-3.82-8.66-7.13zm5.9-16h-5.9c1.92-3.31 4.98-5.87 8.66-7.13-1.2 2.23-2.11 4.63-2.76 7.13zm7.95 23.93c-1.66-2.4-2.96-5.07-3.82-7.93h7.64c-.86 2.86-2.16 5.53-3.82 7.93zm4.68-11.93h-9.36c-.19-1.31-.32-2.64-.32-4 0-1.36.13-2.69.32-4h9.36c.19 1.31.32 2.64.32 4 0 1.36-.13 2.69-.32 4zm.51 11.12c1.2-2.23 2.11-4.62 2.76-7.12h5.9c-1.93 3.31-4.99 5.86-8.66 7.12zm3.53-11.12c.16-1.31.28-2.64.28-4 0-1.36-.11-2.69-.28-4h6.75c.33 1.28.53 2.62.53 4s-.19 2.72-.53 4h-6.75z"/></svg>

<?xml version="1.0" encoding="utf-8"?>
<!-- Generator: Adobe Illustrator 24.2.3, SVG Export Plug-In . SVG Version: 6.00 Build 0)  -->
<svg version="1.1" id="Layer_1" xmlns="http://www.w3.org/2000/svg" xmlns:xlink="http://www.w3.org/1999/xlink" x="0px" y="0px"
	 viewBox="0 0 48 48" style="enable-background:new 0 0 48 48;" xml:space="preserve">
<style type="text/css">
	.st0{fill:none;}
	.st1{fill:#707070;}
</style>
<path class="st0" d="M0,0h48v48H0V0z"/>
<path class="st1" d="M24,4C12.9,4,4,12.9,4,24s8.9,20,20,20s20-9,20-20S35,4,24,4z M37.8,16h-5.9c-0.6-2.5-1.6-4.9-2.8-7.1
	C32.9,10.1,35.9,12.7,37.8,16z M24,8.1c1.7,2.4,3,5.1,3.8,7.9h-7.6C21,13.1,22.3,10.5,24,8.1z M8.5,28C8.2,26.7,8,25.4,8,24
	s0.2-2.7,0.5-4h6.8c-0.2,1.3-0.3,2.6-0.3,4s0.1,2.7,0.3,4C15.3,28,8.5,28,8.5,28z M10.2,32h5.9c0.6,2.5,1.6,4.9,2.8,7.1
	C15.1,37.9,12.1,35.3,10.2,32z M16.1,16h-5.9c1.9-3.3,5-5.9,8.7-7.1C17.6,11.1,16.7,13.5,16.1,16z M24,39.9c-1.7-2.4-3-5.1-3.8-7.9
	h7.6C27,34.9,25.7,37.5,24,39.9z M28.7,28h-9.4c-0.2-1.3-0.3-2.6-0.3-4s0.1-2.7,0.3-4h9.4c0.2,1.3,0.3,2.6,0.3,4S28.9,26.7,28.7,28z
	 M29.2,39.1c1.2-2.2,2.1-4.6,2.8-7.1h5.9C35.9,35.3,32.9,37.9,29.2,39.1z M32.7,28c0.2-1.3,0.3-2.6,0.3-4s-0.1-2.7-0.3-4h6.8
	c0.3,1.3,0.5,2.6,0.5,4s-0.2,2.7-0.5,4H32.7z"/>
</svg>
